public/icons/blank-avatar.svg

<svg width="126" height="126" viewBox="0 0 126 126" fill="none" xmlns="http://www.w3.org/2000/svg">
<path d="M71.1993 3.18018C71.5243 3.18457 71.8008 3.23076 72.0323 3.31201C72.3464 3.42224 72.6168 3.54883 72.8487 3.68799L73.1056 3.26025C73.757 3.65116 74.1797 4.14919 74.4288 4.71338L73.9727 4.91553C74.1927 5.41384 74.2587 5.99356 74.2032 6.62842L74.7003 6.67139C74.6444 7.31215 74.4777 7.97277 74.2511 8.61475L73.7804 8.44971C73.5637 9.06318 73.2883 9.66338 73.0011 10.2124L73.4425 10.4438C73.1346 11.0323 72.8157 11.5564 72.546 11.9741L72.545 11.9712C72.4682 12.0152 72.3954 12.0584 72.3263 12.0991L72.0079 11.8892C71.8439 12.1372 71.7051 12.3357 71.6075 12.4712C71.5587 12.5389 71.52 12.5909 71.4942 12.6255C71.4813 12.6428 71.4713 12.6562 71.4649 12.6646C71.4619 12.6685 71.4595 12.6715 71.4581 12.6733L71.4571 12.6753H71.4561L72.1319 13.395C72.1324 13.3947 72.1337 13.3938 72.1349 13.3931C72.1372 13.3915 72.1409 13.3894 72.1456 13.3862C72.1557 13.3796 72.171 13.3693 72.1915 13.356C72.2325 13.3293 72.2941 13.2894 72.3731 13.2397C72.5313 13.1404 72.7605 13.0005 73.0421 12.8394L72.8263 12.4624C72.8311 12.4551 72.837 12.4483 72.8419 12.4409L72.797 12.4106L72.794 12.4058C73.3156 12.1073 74.0113 11.7388 74.7706 11.4175L74.9659 11.8774C75.6234 11.5993 76.3139 11.3642 76.9649 11.2446L76.8751 10.7534C77.6732 10.6069 78.4345 10.618 79.0431 10.9087L78.8282 11.3589C79.0714 11.4752 79.2813 11.6494 79.4493 11.9028C79.6266 12.1705 79.7835 12.4362 79.921 12.6978L80.3624 12.4644C80.6882 13.0841 80.9141 13.6921 81.0509 14.2817L80.5655 14.394C80.7094 15.0147 80.7439 15.6077 80.6866 16.1646L81.1827 16.2153C81.1145 16.879 80.9264 17.5023 80.6368 18.0737L80.1925 17.8491C80.0929 18.0456 79.9794 18.2355 79.8536 18.4185L79.7237 18.5991C79.5992 18.7645 79.4176 18.9908 79.1866 19.2651L79.5665 19.5854C79.2516 19.9594 78.8544 20.4135 78.3995 20.9126L78.0313 20.5776C77.6647 20.9798 77.2605 21.4119 76.8321 21.855L77.1895 22.2007C76.7901 22.6138 76.3696 23.0361 75.9395 23.4536L75.5938 23.0972C75.1731 23.5056 74.7434 23.9086 74.3155 24.2915L74.6485 24.6626C74.1931 25.0702 73.7387 25.4565 73.297 25.8052L72.9884 25.4136C72.495 25.803 72.0246 26.1384 71.5948 26.3999L71.8536 26.8247C71.2292 27.2046 70.6721 27.445 70.2267 27.481L70.1876 26.9849C69.9794 27.0018 69.8888 26.9504 69.8321 26.8862L69.8224 26.8735L69.7345 26.7759C69.5107 26.55 69.1618 26.3395 68.7804 26.1431L68.5518 26.5874L68.5509 26.5884C68.0489 26.3299 67.3713 26.0398 66.5616 25.73L66.7413 25.2632C66.1266 25.028 65.4382 24.7819 64.6974 24.5288L64.5362 25.0024L64.5352 25.0034C63.889 24.7827 63.2008 24.5552 62.4825 24.3257H62.4835L62.6358 23.8491C61.9677 23.6356 61.2738 23.4198 60.5655 23.2036L60.42 23.6812L60.419 23.6831C59.7397 23.4758 59.0463 23.268 58.3477 23.062L58.3487 23.061L58.4903 22.5815C57.7993 22.3778 57.1032 22.1755 56.4112 21.9771L56.2735 22.4575L56.2726 22.4585C55.5729 22.2578 54.8773 22.06 54.1944 21.8687H54.1954L54.3302 21.3872C53.6182 21.1877 52.9199 20.9941 52.2462 20.8091L52.1143 21.2905C51.3858 21.0904 50.6854 20.9008 50.0265 20.7231H50.0274L50.1573 20.2407C49.3985 20.0361 48.6944 19.848 48.0645 19.6812L47.9366 20.1646L47.9356 20.1655C47.091 19.9418 46.3799 19.7571 45.8507 19.6196L45.8517 19.6167L45.9776 19.1333C45.9403 19.1236 45.9037 19.1142 45.8683 19.105C45.8772 19.0974 45.8865 19.0902 45.8956 19.0825L45.5733 18.6997C45.9648 18.3699 46.4964 17.9272 47.1397 17.3979L47.4581 17.7827C47.9268 17.3972 48.4553 16.9661 49.0333 16.5005L48.7208 16.1118C49.2174 15.7118 49.7497 15.2853 50.3126 14.8413L50.6231 15.2329C51.1351 14.8291 51.6722 14.4102 52.2286 13.981L51.9229 13.5845C52.4451 13.1817 52.9854 12.7712 53.5382 12.355L53.838 12.7534C54.3707 12.3524 54.9162 11.9471 55.4698 11.5415L55.1739 11.1382C55.7165 10.7407 56.2685 10.3443 56.8243 9.94971L57.1134 10.356C57.6639 9.96512 58.219 9.57741 58.7755 9.19678L58.4933 8.78467C59.0574 8.39882 59.6239 8.02126 60.1876 7.65283L60.4601 8.06982C61.032 7.69597 61.6017 7.33348 62.1651 6.98584L61.9034 6.56104C62.4949 6.19612 63.0795 5.84632 63.6544 5.51807L63.9024 5.95264C64.5043 5.60896 65.0934 5.28846 65.6651 4.99658L65.4376 4.55127L65.4366 4.55029C66.0743 4.22475 66.6931 3.93562 67.2843 3.68506L67.4796 4.14404C68.141 3.86375 68.7621 3.63815 69.3341 3.47607L69.1974 2.99658C69.9419 2.78559 70.6169 2.67444 71.2042 2.68213L71.1993 3.18018ZM69.4356 27.189L69.4347 27.1899H69.4337V27.189H69.4356Z" fill="#F5EFEF" stroke="black" stroke-dasharray="2 2"/>
<path d="M87.2296 52.7817C87.29 53.4944 87.329 54.1933 87.3448 54.8843L86.8458 54.896C86.8617 55.5934 86.8546 56.2824 86.8243 56.9683L87.3223 56.9888C87.2914 57.6894 87.2369 58.3873 87.1583 59.0884L86.6622 59.0337C86.586 59.7127 86.4871 60.3956 86.3653 61.0874L86.8575 61.1733C86.7381 61.8511 86.5963 62.5367 86.4337 63.2358L85.9483 63.1235L85.7003 64.1353C85.6176 64.4561 85.5412 64.7745 85.4708 65.0903L85.9581 65.1997H85.959C85.8171 65.8364 85.7003 66.4629 85.6046 67.0796H85.6036L85.1094 67.0034C85.0077 67.6591 84.9291 68.3037 84.8721 68.938L85.3702 68.9829H85.3721C85.3138 69.632 85.2749 70.27 85.2569 70.8979L84.7579 70.8853C84.7391 71.5439 84.7402 72.1908 84.7569 72.8267L85.2569 72.814L85.2579 72.813C85.2749 73.4627 85.3081 74.1014 85.3536 74.73L85.3526 74.731L84.8546 74.7671C84.9019 75.4206 84.9616 76.0624 85.0294 76.6929L85.5264 76.6392L85.5274 76.6382C85.5967 77.2836 85.6756 77.9183 85.7559 78.5435L85.754 78.5444L85.2579 78.6089C85.3406 79.2528 85.4266 79.8878 85.5089 80.5093L86.004 80.4438C86.0893 81.0883 86.1689 81.7232 86.2413 82.3491L85.7471 82.4067C85.8211 83.0469 85.8847 83.6757 85.9307 84.2944L86.4278 84.2573C86.4758 84.9031 86.5066 85.5403 86.5098 86.1704H86.5108L86.0108 86.1733C86.014 86.8049 85.9902 87.4264 85.9317 88.0396L86.4268 88.0864C86.3661 88.7224 86.2691 89.3519 86.127 89.9771L85.6417 89.8677C85.507 90.4597 85.3302 91.0462 85.1046 91.6294L85.5674 91.8081C85.3427 92.3889 85.0744 92.9682 84.7481 93.5444L84.3126 93.2983C84.0223 93.8109 83.6869 94.3239 83.2999 94.8374L83.6973 95.1372C83.3282 95.6269 82.9153 96.1163 82.4532 96.606L82.0909 96.2642C81.6853 96.694 81.2394 97.1249 80.751 97.5581L81.0801 97.9292C80.6243 98.3335 80.1343 98.7399 79.6046 99.146L79.3018 98.7515C78.8245 99.1174 78.3146 99.4847 77.7706 99.854L78.0499 100.267C77.5423 100.612 77.0061 100.957 76.4395 101.304L76.1788 100.879L75.3477 101.376C75.068 101.54 74.7864 101.692 74.503 101.832L74.7227 102.279C74.1212 102.576 73.5114 102.822 72.8946 103.023L72.7413 102.548C72.1315 102.747 71.5141 102.898 70.8907 103.006L70.9747 103.499C70.3245 103.611 69.6684 103.678 69.0079 103.704L68.9893 103.205C68.3555 103.229 67.7159 103.213 67.0723 103.162L67.0323 103.659C66.3805 103.606 65.7264 103.517 65.0704 103.396L65.1612 102.907C64.5349 102.791 63.9055 102.646 63.2755 102.472L63.1436 102.952C62.514 102.778 61.8844 102.579 61.2559 102.356L61.4239 101.887C60.8176 101.672 60.2111 101.434 59.6065 101.177L59.4112 101.636C58.809 101.38 58.2091 101.105 57.6124 100.814L57.8311 100.366C57.2482 100.082 56.6675 99.7821 56.0909 99.4692L55.8526 99.9077C55.2741 99.5938 54.7 99.2668 54.1309 98.9302L54.3848 98.5005C53.8218 98.1675 53.2634 97.8247 52.711 97.4741L52.4434 97.895C51.884 97.54 51.332 97.1761 50.7862 96.8091L51.0645 96.3979C50.5169 96.0297 49.9767 95.6561 49.4444 95.2808L49.1573 95.687C48.6125 95.3029 48.0758 94.918 47.5499 94.5327L47.8448 94.1304C47.3058 93.7356 46.7771 93.3417 46.2598 92.9517L45.959 93.3501C45.4219 92.945 44.8973 92.5445 44.3868 92.1519L44.6915 91.7563C44.1533 91.3424 43.6303 90.937 43.1241 90.5444L42.8165 90.939C42.276 90.5199 41.7533 90.118 41.254 89.7339L41.2559 89.7319L41.5616 89.3354C41.0055 88.9077 40.474 88.5032 39.9717 88.1304L39.6739 88.5327H39.6729C39.095 88.1037 38.5557 87.7183 38.0606 87.3853L38.0626 87.3843L38.3419 86.9692C38.0457 86.77 37.762 86.5881 37.4932 86.4263L36.6534 85.9038L36.3829 86.3237C35.8211 85.9633 35.269 85.5851 34.7256 85.1919L35.0186 84.7886C34.4855 84.4028 33.9612 84.0013 33.4473 83.5845L33.1329 83.9702C32.6147 83.5498 32.1068 83.1141 31.6094 82.6636L31.9444 82.2954C31.4566 81.8537 30.9791 81.3974 30.5128 80.9272L30.1592 81.2759C29.6896 80.8023 29.231 80.315 28.7842 79.814L29.1553 79.4839C28.7175 78.9929 28.2905 78.4891 27.876 77.9722L27.4883 78.2817C27.0711 77.7613 26.666 77.2284 26.2735 76.6831L26.6778 76.394C26.2935 75.8601 25.9208 75.3147 25.5616 74.7573L25.1436 75.0259C24.7825 74.4655 24.4345 73.8938 24.0997 73.311L24.5313 73.064C24.2037 72.4937 23.8889 71.913 23.588 71.3218L23.1446 71.5464C22.8424 70.9527 22.5549 70.3485 22.2803 69.7349L22.7335 69.5327C22.4649 68.9325 22.2105 68.3225 21.9698 67.7036L21.5059 67.8833C21.2647 67.2629 21.0368 66.6337 20.8243 65.9956L21.2969 65.8394C21.0892 65.2156 20.8958 64.583 20.7169 63.9429L20.2364 64.0767C20.0572 63.4356 19.891 62.787 19.7413 62.1304L20.2286 62.021C20.1553 61.6997 20.0855 61.3762 20.0196 61.0513L19.834 60.0737L19.3409 60.1606C19.2229 59.4973 19.1238 58.8349 19.0391 58.1743L19.5342 58.1118C19.4497 57.4524 19.3817 56.7947 19.3301 56.1392L18.8331 56.1772C18.7803 55.5061 18.745 54.8374 18.7256 54.1714L19.2227 54.1577C19.2034 53.4938 19.2013 52.8328 19.2149 52.1753L18.7169 52.1646C18.7308 51.4922 18.7605 50.8234 18.8077 50.1587L19.3057 50.1938C19.3528 49.5318 19.4164 48.8733 19.4962 48.2202L18.9991 48.1597C19.0806 47.492 19.1804 46.8296 19.295 46.1724L19.7862 46.2583C19.9002 45.6045 20.0305 44.956 20.1768 44.314L19.6915 44.2026C19.8408 43.5473 20.0067 42.8984 20.1885 42.2563L20.6671 42.3931C20.8478 41.7549 21.0454 41.1238 21.2579 40.5005L20.7842 40.3394C21.0011 39.7032 21.2348 39.0753 21.4835 38.4556L21.9464 38.6421C22.1931 38.0271 22.4559 37.4208 22.7335 36.8237L22.2813 36.6138C22.5644 36.0049 22.8619 35.4051 23.1758 34.8159L23.6163 35.0503C23.9276 34.4659 24.2545 33.8919 24.5958 33.3286L24.169 33.0698C24.5168 32.4958 24.8803 31.9334 25.2579 31.3823L25.669 31.6636C26.0429 31.1179 26.4315 30.5842 26.834 30.063L26.4385 29.7573C26.8485 29.2265 27.2735 28.709 27.712 28.2046L28.0889 28.5317C28.5223 28.0331 28.9691 27.5475 29.4297 27.0767L29.0743 26.729C29.543 26.2499 30.023 25.7829 30.5186 25.3335L30.5196 25.3345L30.8555 25.7046C31.3443 25.2615 31.8461 24.8335 32.3604 24.4214L32.0489 24.0327C32.5715 23.6139 33.1065 23.2106 33.6544 22.8247L33.9405 23.2329C34.4788 22.8537 35.0298 22.4913 35.5919 22.146L35.3311 21.7212C35.9007 21.3712 36.4825 21.0394 37.0753 20.7251L37.3077 21.1646C37.8885 20.8566 38.4806 20.5661 39.0831 20.2944L38.878 19.8394C39.4858 19.5652 40.1048 19.3111 40.7335 19.0747L40.9102 19.5405C41.5238 19.3099 42.1473 19.0975 42.7803 18.9048L42.6358 18.4292C43.2726 18.2354 43.9181 18.0584 44.5733 17.9038L44.6876 18.3901C44.8476 18.3524 45.0088 18.3161 45.17 18.2808L45.6563 18.1782C45.981 18.1124 46.3055 18.0518 46.6299 17.9966L46.546 17.5044C47.2098 17.3915 47.8731 17.3015 48.5352 17.2319L48.588 17.7271C49.246 17.6579 49.9028 17.6101 50.5577 17.5835L50.5372 17.0854C51.2086 17.0581 51.8781 17.0522 52.545 17.0679L52.5342 17.5669C53.1948 17.5824 53.8531 17.6189 54.5079 17.6763L54.5499 17.1802C55.2182 17.2387 55.8832 17.3171 56.544 17.4175L56.4708 17.9106C57.1228 18.0097 57.7708 18.1296 58.4141 18.269L58.5196 17.7817C59.1742 17.9236 59.8237 18.0861 60.4678 18.2681L60.3331 18.7476C60.9675 18.9267 61.5969 19.1256 62.2198 19.3433L62.3839 18.8706C63.0157 19.0914 63.6403 19.3336 64.2589 19.5923L64.0665 20.0513C64.6742 20.3054 65.2757 20.5783 65.8692 20.8687L66.088 20.4204C66.6881 20.7141 67.281 21.025 67.8653 21.354L67.6212 21.7896C68.1949 22.1127 68.7605 22.4532 69.3174 22.8101L69.585 22.3901C70.1476 22.7506 70.7011 23.1277 71.2452 23.521L70.9551 23.9253C71.4887 24.311 72.0131 24.7126 72.5274 25.1294L72.8409 24.7417C73.3595 25.1619 73.8675 25.598 74.3653 26.0483L74.0323 26.4185C74.5205 26.8601 74.9982 27.3164 75.4649 27.7866L75.8174 27.4351C76.2878 27.9088 76.7479 28.3957 77.1954 28.897L76.8233 29.23C77.2617 29.7212 77.6886 30.2256 78.1036 30.7427L78.4922 30.4312C78.9097 30.9514 79.3144 31.4846 79.7071 32.0298L79.3038 32.3218C79.6887 32.8561 80.0622 33.4017 80.4219 33.9595L80.8399 33.6899C81.2013 34.2503 81.5517 34.821 81.8868 35.4038V35.4048L81.4532 35.6538C81.7811 36.2243 82.0962 36.8054 82.3975 37.397L82.8409 37.1704C83.1434 37.7644 83.4313 38.3689 83.7061 38.9829L83.253 39.186C83.5218 39.7865 83.7768 40.3969 84.0176 41.0161L84.4805 40.8345C84.722 41.4552 84.9495 42.0847 85.1622 42.7231L84.6905 42.8813C84.8984 43.5054 85.0925 44.1383 85.2715 44.7788L85.751 44.644C85.9303 45.2851 86.0964 45.9337 86.2462 46.5903L85.7589 46.7017C85.8324 47.0241 85.9027 47.3483 85.9688 47.6743C86.0391 48.0212 86.1051 48.3635 86.1671 48.7007L86.6573 48.6099C86.7879 49.321 86.8984 50.0128 86.9922 50.689L86.5001 50.7583C86.5979 51.463 86.6753 52.1499 86.7325 52.8237L87.2296 52.7817Z" fill="#F5EFEF" stroke="black" stroke-dasharray="2 2"/>
<path d="M32.8608 48.7115C36.7438 48.7115 39.8916 45.5637 39.8916 41.6807C39.8916 37.7977 36.7438 34.6499 32.8608 34.6499C28.9778 34.6499 25.83 37.7977 25.83 41.6807C25.83 45.5637 28.9778 48.7115 32.8608 48.7115Z" fill="white"/>
<path d="M30.3887 45.3802C32.4318 45.3802 34.0881 43.7239 34.0881 41.6808C34.0881 39.6377 32.4318 37.9814 30.3887 37.9814C28.3456 37.9814 26.6893 39.6377 26.6893 41.6808C26.6893 43.7239 28.3456 45.3802 30.3887 45.3802Z" fill="black" stroke="white" stroke-miterlimit="10"/>
<path d="M53.9533 48.7115C57.8363 48.7115 60.9841 45.5637 60.9841 41.6807C60.9841 37.7977 57.8363 34.6499 53.9533 34.6499C50.0703 34.6499 46.9225 37.7977 46.9225 41.6807C46.9225 45.5637 50.0703 48.7115 53.9533 48.7115Z" fill="white"/>
<path d="M51.733 45.3802C53.7761 45.3802 55.4324 43.7239 55.4324 41.6808C55.4324 39.6377 53.7761 37.9814 51.733 37.9814C49.6899 37.9814 48.0337 39.6377 48.0337 41.6808C48.0337 43.7239 49.6899 45.3802 51.733 45.3802Z" fill="black" stroke="white" stroke-miterlimit="10"/>
</svg>

<?xml version="1.0" encoding="UTF-8"?><svg id="blank-avatar_svg__Layer_1" xmlns="http://www.w3.org/2000/svg" version="1.1" viewBox="0 0 126 126"><defs><style>.blank-avatar_svg__st0{fill:#fff}.blank-avatar_svg__st1{stroke:#fff;stroke-miterlimit:10}.blank-avatar_svg__st2{fill:#f5efef}</style></defs><path d="M75.58,101.77c-13.43,7.85-31.45-10.8-38.34-14.95-8.7-5.23-15.41-14.39-17.7-25.69-4.11-20.24,7.54-39.7,26.01-43.45.52-.1,1.05-.2,1.57-.28h.01c5.72-4.71,20.36-16.2,25.05-14.56,5.75,2.02-.08,9.8-.33,10.13.28-.18,6.19-4.07,8-1.35,1.84,2.79,1.65,5.42.25,7.27-.81,1.09-3.77,4.4-6.41,6.58,6.25,5.38,10.91,13.04,12.74,22.08,1.28,6.29,1.2,10.98-.27,16.68-4.28,16.62,8.6,26.32-10.58,37.54Z"/><path class="blank-avatar_svg__st2" d="M86.81,56.97l.5.02c-.03.7-.08,1.4-.16,2.1l-.5-.06c-.07.68-.17,1.37-.29,2.06l.49.08c-.12.68-.26,1.37-.43,2.07l-.48-.12-.25,1.02c-.08.32-.16.63-.23.95l.49.11c-.14.64-.26,1.26-.36,1.88l-.49-.08c-.1.66-.18,1.3-.24,1.94l.5.04c-.06.65-.1,1.29-.11,1.92h-.5c-.02.64-.02,1.29,0,1.93l.5-.02c.01.65.05,1.29.09,1.92l-.5.04c.05.65.11,1.29.18,1.92l.5-.05c.07.64.15,1.28.23,1.9h-.01l-.49.07c.08.64.17,1.28.25,1.9l.49-.07c.09.65.17,1.28.24,1.91l-.49.06c.07.64.13,1.27.18,1.88l.5-.03c.05.64.08,1.28.08,1.91h-.5c0,.63-.02,1.26-.08,1.87l.5.05c-.06.63-.16,1.26-.3,1.89l-.49-.11c-.13.59-.31,1.18-.54,1.76l.47.18c-.23.58-.5,1.16-.82,1.73l-.44-.24c-.29.51-.62,1.02-1.01,1.54l.4.3c-.37.49-.78.98-1.25,1.47l-.36-.35c-.4.43-.85.86-1.34,1.3l.33.37c-.46.4-.95.81-1.48,1.22l-.3-.4c-.48.37-.99.73-1.53,1.1l.28.42c-.51.34-1.04.69-1.61,1.03l-.26-.42-.83.5c-.28.16-.56.31-.85.45l.22.45c-.6.3-1.21.54-1.83.74l-.15-.47c-.61.2-1.23.35-1.85.46l.08.49c-.65.11-1.3.18-1.96.2l-.02-.49c-.63.02-1.27,0-1.92-.05l-.04.5c-.65-.05-1.3-.14-1.96-.26l.09-.49c-.63-.12-1.25-.26-1.88-.44l-.14.48c-.63-.17-1.26-.37-1.88-.59l.16-.47c-.6-.22-1.21-.46-1.81-.71l-.2.46c-.6-.26-1.2-.53-1.8-.83l.22-.44c-.58-.29-1.16-.59-1.74-.9l-.24.44c-.58-.32-1.15-.64-1.72-.98l.25-.43c-.56-.33-1.12-.68-1.67-1.03l-.27.42c-.56-.35-1.11-.71-1.65-1.08l.27-.41c-.54-.37-1.08-.74-1.62-1.12l-.28.41c-.55-.39-1.08-.77-1.61-1.16l.29-.4c-.53-.39-1.06-.79-1.58-1.18l-.3.4c-.54-.41-1.06-.81-1.57-1.2l.3-.39c-.54-.42-1.06-.82-1.57-1.22l-.3.4c-.54-.42-1.06-.81-1.56-1.21l.3-.39c-.55-.43-1.09-.84-1.59-1.21l-.3.4c-.57-.43-1.11-.81-1.61-1.14h0s.28-.42.28-.42c-.29-.2-.58-.38-.85-.54l-.84-.53-.27.42c-.56-.36-1.11-.73-1.65-1.13l.29-.4c-.53-.39-1.06-.79-1.57-1.21l-.32.39c-.52-.42-1.02-.86-1.52-1.31l.33-.36c-.48-.45-.96-.9-1.43-1.37l-.35.35c-.47-.48-.93-.96-1.38-1.47l.38-.33c-.44-.49-.87-.99-1.28-1.51l-.39.31c-.42-.52-.82-1.05-1.22-1.6l.41-.29c-.39-.53-.76-1.08-1.12-1.63l-.42.27c-.36-.56-.71-1.14-1.04-1.72l.43-.25c-.33-.57-.64-1.15-.94-1.74l-.45.23c-.3-.6-.59-1.2-.86-1.82l.45-.2c-.27-.6-.52-1.21-.76-1.83l-.46.18c-.25-.62-.47-1.25-.69-1.88l.48-.16c-.21-.62-.4-1.26-.58-1.9l-.48.14c-.18-.64-.35-1.29-.5-1.95l.49-.11c-.07-.32-.14-.64-.21-.97l-.19-.98-.49.09c-.12-.66-.22-1.33-.3-1.99l.49-.06c-.08-.66-.15-1.32-.2-1.97l-.5.04c-.05-.67-.08-1.34-.1-2.01h.49c-.02-.68-.02-1.34,0-1.99l-.49-.02c.01-.67.04-1.34.09-2l.5.03c.04-.66.11-1.32.19-1.97l-.5-.06c.08-.67.18-1.33.3-1.99l.49.09c.11-.66.24-1.3.39-1.95l-.49-.11c.15-.65.32-1.3.5-1.94l.48.13c.18-.64.38-1.27.59-1.89l-.48-.16c.22-.64.45-1.26.7-1.88l.47.18c.24-.61.51-1.22.78-1.82l-.45-.21c.28-.61.58-1.2.9-1.79l.44.23c.31-.58.63-1.16.98-1.72l-.43-.26c.35-.57.71-1.14,1.09-1.69l.41.28c.37-.54.76-1.08,1.16-1.6l-.39-.3c.41-.53.83-1.05,1.27-1.56l.38.33c.43-.5.88-.98,1.34-1.45l-.36-.35c.47-.48.95-.95,1.45-1.4l.34.37c.48-.44.99-.87,1.5-1.28l-.31-.39c.52-.42,1.06-.82,1.6-1.21l.29.41c.54-.38,1.09-.74,1.65-1.08l-.26-.43c.57-.35,1.15-.68,1.75-.99l.23.43c.58-.3,1.17-.59,1.77-.87l-.2-.45c.61-.27,1.22-.53,1.85-.77l.18.47c.61-.23,1.24-.44,1.87-.64l-.14-.47c.63-.19,1.28-.37,1.93-.53l.12.49c.16-.04.32-.07.48-.11l.49-.1c.22-.05.45-.09.68-.13.1-.02.19-.04.29-.05l-.03-.16c.16-.13.34-.27.52-.43h.03l.31.37c.19-.16.4-.32.61-.49.3-.25.62-.51.96-.79l-.31-.39c.5-.4,1.03-.82,1.59-1.27l.31.39c.52-.4,1.05-.82,1.61-1.25l-.31-.4c.53-.4,1.07-.81,1.62-1.23l.3.4c.53-.4,1.08-.8,1.63-1.21l-.3-.4c.55-.4,1.1-.8,1.65-1.19l.29.41c.55-.39,1.11-.78,1.67-1.16l-.29-.42c.57-.38,1.13-.76,1.7-1.13l.27.42c.57-.37,1.14-.74,1.71-1.08l-.27-.43c.59-.36,1.18-.71,1.75-1.04l.25.43c.6-.34,1.19-.66,1.77-.95l-.23-.45c.63-.33,1.25-.61,1.84-.86l.2.45c.66-.28,1.28-.5,1.85-.66l-.13-.48c.74-.21,1.42-.33,2-.32v.5c.32,0,.6.05.83.13.32.11.59.24.82.38l.26-.43c.65.39,1.07.89,1.32,1.45l-.46.21c.22.49.29,1.07.23,1.71l.5.04c-.06.64-.22,1.3-.45,1.94l-.47-.16c-.22.61-.49,1.21-.78,1.76l.44.23c-.31.59-.62,1.12-.89,1.53h-.01c-.07.05-.14.09-.21.13l-.32-.21c-.17.25-.3.45-.4.58-.05.07-.09.12-.12.16-.01.01-.02.03-.03.03h0v.02l.67.71h.02s.02-.02.04-.03c.04-.03.1-.07.18-.12.16-.1.39-.24.67-.4l-.21-.38s.01-.01.01-.02l-.04-.03c.53-.3,1.21-.67,1.97-.99l.2.46c.65-.28,1.34-.52,1.99-.64l-.08-.49c.79-.14,1.55-.13,2.16.16l-.21.45c.24.12.45.29.62.54.18.27.33.54.47.8l.44-.24c.33.62.55,1.23.69,1.82l-.48.11c.14.62.17,1.22.12,1.77l.49.06c-.07.66-.25,1.28-.54,1.85l-.45-.22c-.1.2-.21.39-.34.57l-.13.18c-.12.16-.3.39-.53.67l.38.32c-.32.37-.72.82-1.17,1.32l-.37-.33c-.37.4-.77.83-1.2,1.27l.36.35c-.4.41-.82.84-1.25,1.25l-.35-.35c-.42.41-.85.81-1.27,1.19l.33.37c-.32.28-.63.56-.94.81.22.19.44.38.66.58l-.34.37c.49.44.97.9,1.43,1.37l.36-.35c.47.47.93.96,1.38,1.46l-.38.33c.44.49.87,1,1.28,1.51l.39-.31c.42.52.82,1.05,1.22,1.6l-.41.29c.39.54.76,1.08,1.12,1.64l.42-.27c.36.56.71,1.13,1.05,1.71l-.44.25c.33.57.65,1.16.95,1.75l.44-.23c.3.59.59,1.2.87,1.81l-.46.21c.27.6.53,1.21.77,1.83l.46-.19c.24.63.47,1.25.68,1.89l-.47.16c.21.63.4,1.26.58,1.9l.48-.14c.18.65.35,1.29.5,1.95l-.49.11c.07.32.14.65.21.97.07.35.14.69.2,1.03l.49-.09c.13.71.24,1.4.33,2.08l-.49.07c.1.7.18,1.39.23,2.06l.5-.04c.06.71.1,1.41.11,2.1l-.49.02c.01.69,0,1.38-.03,2.07Z"/><path class="blank-avatar_svg__st0" d="M32.86,48.71c3.88,0,7.03-3.15,7.03-7.03s-3.15-7.03-7.03-7.03-7.03,3.15-7.03,7.03,3.15,7.03,7.03,7.03Z"/><path class="blank-avatar_svg__st1" d="M30.39,45.38c2.04,0,3.7-1.66,3.7-3.7s-1.66-3.7-3.7-3.7-3.7,1.66-3.7,3.7,1.66,3.7,3.7,3.7Z"/><path class="blank-avatar_svg__st0" d="M53.95,48.71c3.88,0,7.03-3.15,7.03-7.03s-3.15-7.03-7.03-7.03-7.03,3.15-7.03,7.03,3.15,7.03,7.03,7.03Z"/><path class="blank-avatar_svg__st1" d="M51.73,45.38c2.04,0,3.7-1.66,3.7-3.7s-1.66-3.7-3.7-3.7-3.7,1.66-3.7,3.7,1.66,3.7,3.7,3.7Z"/></svg>
